public/cloud-icons/azure/compute/blockchain-consortium.svg

<?xml version="1.0" encoding="UTF-8" standalone="no"?>
<!-- Generated by Microsoft Visio, SVG Export Blockchain Consortium.svg Page-1 -->

<svg
   xmlns:dc="http://purl.org/dc/elements/1.1/"
   xmlns:cc="http://creativecommons.org/ns#"
   xmlns:rdf="http://www.w3.org/1999/02/22-rdf-syntax-ns#"
   xmlns:svg="http://www.w3.org/2000/svg"
   xmlns="http://www.w3.org/2000/svg"
   xmlns:sodipodi="http://sodipodi.sourceforge.net/DTD/sodipodi-0.dtd"
   xmlns:inkscape="http://www.inkscape.org/namespaces/inkscape"
   width="56.6973"
   height="56.691601"
   viewBox="0 0 56.697298 56.691602"
   xml:space="preserve"
   class="st16"
   version="1.1"
   id="svg122"
   sodipodi:docname="Blockchain Consortium.svg"
   style="font-size:12px;overflow:visible;color-interpolation-filters:sRGB;fill:none;fill-rule:evenodd;stroke-linecap:square;stroke-miterlimit:3"
   inkscape:version="0.92.5 (2060ec1f9f, 2020-04-08)"><metadata
   id="metadata128"><rdf:RDF><cc:Work
       rdf:about=""><dc:format>image/svg+xml</dc:format><dc:type
         rdf:resource="http://purl.org/dc/dcmitype/StillImage" /></cc:Work></rdf:RDF></metadata><defs
   id="defs126" /><sodipodi:namedview
   pagecolor="#ffffff"
   bordercolor="#666666"
   borderopacity="1"
   objecttolerance="10"
   gridtolerance="10"
   guidetolerance="10"
   inkscape:pageopacity="0"
   inkscape:pageshadow="2"
   inkscape:window-width="640"
   inkscape:window-height="480"
   id="namedview124"
   showgrid="false"
   inkscape:zoom="2.4486917"
   inkscape:cx="28.346461"
   inkscape:cy="14.175301"
   inkscape:window-x="0"
   inkscape:window-y="0"
   inkscape:window-maximized="0"
   inkscape:current-layer="svg122" />
	<style
   type="text/css"
   id="style2">
	<![CDATA[
		.st1 {fill:#773adc;stroke:none;stroke-linecap:butt;stroke-width:0.75}
		.st2 {fill:#552f99;stroke:none;stroke-linecap:butt;stroke-width:0.75}
		.st3 {fill:#b796f9;stroke:none;stroke-linecap:butt;stroke-width:0.75}
		.st4 {fill:#a67af4;stroke:none;stroke-linecap:butt;stroke-width:0.75}
		.st5 {fill:#5e9624;stroke:none;stroke-linecap:butt;stroke-width:0.75}
		.st6 {fill:#76bc2d;stroke:none;stroke-linecap:butt;stroke-width:0.75}
		.st7 {fill:#32bedd;stroke:none;stroke-linecap:butt;stroke-width:0.75}
		.st8 {fill:#258277;stroke:none;stroke-linecap:butt;stroke-width:0.75}
		.st9 {fill:#37c2b1;stroke:none;stroke-linecap:butt;stroke-width:0.75}
		.st10 {fill:#d15900;stroke:none;stroke-linecap:butt;stroke-width:0.75}
		.st11 {fill:#f78d1e;stroke:none;stroke-linecap:butt;stroke-width:0.75}
		.st12 {fill:#207067;stroke:none;stroke-linecap:butt;stroke-width:0.75}
		.st13 {fill:#ffb34d;stroke:none;stroke-linecap:butt;stroke-width:0.75}
		.st14 {fill:#42e8ca;stroke:none;stroke-linecap:butt;stroke-width:0.75}
		.st15 {fill:#b4ec36;stroke:none;stroke-linecap:butt;stroke-width:0.75}
		.st16 {fill:none;fill-rule:evenodd;font-size:12px;overflow:visible;stroke-linecap:square;stroke-miterlimit:3}
	]]>
	</style>

	<g
   id="g120"
   transform="translate(-5.66929,-5.6727)">
		<title
   id="title4">Page-1</title>
		<g
   id="group12513-1"
   transform="translate(5.66929,-34.0157)">
			<title
   id="title6">Blockchain Consortium.12513</title>
			<g
   id="group12514-2">
				<title
   id="title8">Sheet.12514</title>
				<g
   id="shape12515-3"
   transform="translate(28.0243,-32.3502)">
					<title
   id="title10">Sheet.12515</title>
					<path
   d="M 10.31,78.12 V 90.29 L 0,96.38 V 84.21 Z"
   class="st1"
   id="path12"
   inkscape:connector-curvature="0"
   style="fill:#773adc;stroke:none;stroke-width:0.75;stroke-linecap:butt" />
				</g>
				<g
   id="shape12516-5"
   transform="translate(31.5676,-37.981)">
					<title
   id="title15">Sheet.12516</title>
					<path
   d="m 2.25,90.2 c 1.42,-0.85 2.26,-0.29 2.26,1.4 A 5.72083,5.68851 0 0 1 2.25,95.54 C 1.12,96.38 0,95.82 0,94.13 A 5.72083,5.68851 0 0 1 2.25,90.2 Z"
   class="st2"
   id="path17"
   inkscape:connector-curvature="0"
   style="fill:#552f99;stroke:none;stroke-width:0.75;stroke-linecap:butt" />
				</g>
				<g
   id="shape12517-7"
   transform="translate(17.3944,-44.5216)">
					<title
   id="title20">Sheet.12517</title>
					<path
   d="M 20.94,90.29 10.63,96.38 0,90.29 10.63,84.21 Z"
   class="st3"
   id="path22"
   inkscape:connector-curvature="0"
   style="fill:#b796f9;stroke:none;stroke-width:0.75;stroke-linecap:butt" />
				</g>
				<g
   id="shape12518-9"
   transform="translate(17.3944,-32.3502)">
					<title
   id="title25">Sheet.12518</title>
					<path
   d="M 10.63,84.21 V 96.38 L 0,90.29 V 78.12 Z"
   class="st4"
   id="path27"
   inkscape:connector-curvature="0"
   style="fill:#a67af4;stroke:none;stroke-width:0.75;stroke-linecap:butt" />
				</g>
				<g
   id="shape12519-11"
   transform="translate(19.7008,-38.1156)">
					<title
   id="title30">Sheet.12519</title>
					<path
   d="M 2.58,90.29 C 1.29,89.65 0,90.29 0,91.57 a 4.64173,4.61551 -180 0 0 2.58,4.17 c 1.29,0.64 2.57,0 2.57,-1.28 A 5.32462,5.29454 -180 0 0 2.58,90.29 Z"
   class="st1"
   id="path32"
   inkscape:connector-curvature="0"
   style="fill:#773adc;stroke:none;stroke-width:0.75;stroke-linecap:butt" />
				</g>
				<g
   id="shape12520-13"
   transform="translate(46.3851,-16.3352)">
					<title
   id="title35">Sheet.12520</title>
					<path
   d="M 10.31,78.12 V 90.29 L 0,96.38 V 84.21 Z"
   class="st5"
   id="path37"
   inkscape:connector-curvature="0"
   style="fill:#5e9624;stroke:none;stroke-width:0.75;stroke-linecap:butt" />
				</g>
				<g
   id="shape12521-15"
   transform="translate(36.0773,-16.3352)">
					<title
   id="title40">Sheet.12521</title>
					<path
   d="M 10.31,84.21 V 96.38 L 0,90.29 V 78.12 Z"
   class="st6"
   id="path42"
   inkscape:connector-curvature="0"
   style="fill:#76bc2d;stroke:none;stroke-width:0.75;stroke-linecap:butt" />
				</g>
				<g
   id="shape12522-17"
   transform="translate(38.9764,-21.46)">
					<title
   id="title45">Sheet.12522</title>
					<path
   d="M 2.58,90.29 C 1.29,89.65 0,90.29 0,91.57 a 4.64173,4.61551 -180 0 0 2.58,4.17 c 1.29,0.64 2.57,0 2.57,-1.28 A 5.32462,5.29454 -180 0 0 2.58,90.29 Z"
   class="st5"
   id="path47"
   inkscape:connector-curvature="0"
   style="fill:#5e9624;stroke:none;stroke-width:0.75;stroke-linecap:butt" />
				</g>
				<g
   id="group12523-19"
   transform="translate(33.1782,-30.7487)">
					<title
   id="title50">Sheet.12523</title>
					<g
   id="shape12524-20"
   transform="translate(0,-5.39063)">
						<title
   id="title52">Sheet.12524</title>
						<path
   d="M 8.49,94.8 A 16.5923,16.4986 -180 0 0 2.25,90.24 1.66535,1.65595 -180 0 0 0,91.2 a 1.43665,1.42853 -180 0 0 0.97,1.92 13.7094,13.6319 0 0 1 4.7,3.26 z"
   class="st7"
   id="path54"
   inkscape:connector-curvature="0"
   style="fill:#32bedd;stroke:none;stroke-width:0.75;stroke-linecap:butt" />
					</g>
					<g
   id="shape12525-22"
   transform="translate(8.48461)">
						<title
   id="title57">Sheet.12525</title>
						<path
   d="m 0,95.83 c 0.06,0.19 0.16,0.36 0.21,0.55 L 0.6,96.19 Z"
   class="st7"
   id="path59"
   inkscape:connector-curvature="0"
   style="fill:#32bedd;stroke:none;stroke-width:0.75;stroke-linecap:butt" />
					</g>
				</g>
				<g
   id="shape12526-24"
   transform="translate(10.3078,-16.0149)">
					<title
   id="title63">Sheet.12526</title>
					<path
   d="M 10.63,78.44 V 90.29 L 0,96.38 V 84.53 Z"
   class="st8"
   id="path65"
   inkscape:connector-curvature="0"
   style="fill:#258277;stroke:none;stroke-width:0.75;stroke-linecap:butt" />
				</g>
				<g
   id="shape12527-26"
   transform="translate(0,-16.0149)">
					<title
   id="title68">Sheet.12527</title>
					<path
   d="M 10.31,84.53 V 96.38 L 0,90.29 V 78.44 Z"
   class="st9"
   id="path70"
   inkscape:connector-curvature="0"
   style="fill:#37c2b1;stroke:none;stroke-width:0.75;stroke-linecap:butt" />
				</g>
				<g
   id="shape12528-28"
   transform="translate(14.6306,-35.6204)">
					<title
   id="title73">Sheet.12528</title>
					<path
   d="M 8.56,90.68 A 2.1582,2.146 -180 0 0 5.98,89.72 21.2598,21.1397 -180 0 0 0,94.44 l 3.41,1.94 A 14.9656,14.8811 0 0 1 7.6,93.24 2.1582,2.146 -180 0 0 8.56,90.68 Z"
   class="st7"
   id="path75"
   inkscape:connector-curvature="0"
   style="fill:#32bedd;stroke:none;stroke-width:0.75;stroke-linecap:butt" />
				</g>
				<g
   id="shape12529-30"
   transform="translate(28.9907)">
					<title
   id="title78">Sheet.12529</title>
					<path
   d="M 10.31,78.12 V 90.29 L 0,96.38 V 84.21 Z"
   class="st10"
   id="path80"
   inkscape:connector-curvature="0"
   style="fill:#d15900;stroke:none;stroke-width:0.75;stroke-linecap:butt" />
				</g>
				<g
   id="shape12530-32"
   transform="translate(18.6829)">
					<title
   id="title83">Sheet.12530</title>
					<path
   d="M 10.31,84.21 V 96.38 L 0,90.29 V 78.12 Z"
   class="st11"
   id="path85"
   inkscape:connector-curvature="0"
   style="fill:#f78d1e;stroke:none;stroke-width:0.75;stroke-linecap:butt" />
				</g>
				<g
   id="shape12531-34"
   transform="translate(34.9853,-18.9681)">
					<title
   id="title88">Sheet.12531</title>
					<path
   d="M 6.89,90.36 A 1.67824,1.66876 -180 0 0 4.31,90.68 16.9435,16.8477 0 0 1 0,94.54 l 3.11,1.84 a 19.2369,19.1283 -180 0 0 4.1,-3.45 1.67824,1.66876 -180 0 0 -0.32,-2.57 z"
   class="st7"
   id="path90"
   inkscape:connector-curvature="0"
   style="fill:#32bedd;stroke:none;stroke-width:0.75;stroke-linecap:butt" />
				</g>
				<g
   id="shape12532-36"
   transform="translate(13.6095,-21.1045)">
					<title
   id="title93">Sheet.12532</title>
					<path
   d="M 2.54,89.74 C 4,88.94 5.07,89.61 5.07,91.2 A 5.82713,5.79421 0 0 1 2.54,95.58 C 1.07,96.38 0,95.71 0,94.12 a 5.47602,5.44508 0 0 1 2.54,-4.38 z"
   class="st12"
   id="path95"
   inkscape:connector-curvature="0"
   style="fill:#207067;stroke:none;stroke-width:0.75;stroke-linecap:butt" />
				</g>
				<g
   id="shape12533-38"
   transform="translate(14.7047,-18.7855)">
					<title
   id="title98">Sheet.12533</title>
					<path
   d="M 8.56,94.2 A 13.7351,13.6575 0 0 1 3.33,90.18 1.70401,1.69438 -180 0 0 0.76,89.86 1.70401,1.69438 -180 0 0 0.43,92.42 17.7938,17.6933 -180 0 0 4.88,96.38 Z"
   class="st7"
   id="path100"
   inkscape:connector-curvature="0"
   style="fill:#32bedd;stroke:none;stroke-width:0.75;stroke-linecap:butt" />
				</g>
				<g
   id="shape12534-40"
   transform="translate(18.6829,-12.1714)">
					<title
   id="title103">Sheet.12534</title>
					<path
   d="M 20.62,90.29 10.31,96.38 0,90.29 10.31,84.21 Z"
   class="st13"
   id="path105"
   inkscape:connector-curvature="0"
   style="fill:#ffb34d;stroke:none;stroke-width:0.75;stroke-linecap:butt" />
				</g>
				<g
   id="shape12535-42"
   transform="translate(0,-27.866)">
					<title
   id="title108">Sheet.12535</title>
					<path
   d="M 20.94,90.29 10.31,96.38 0,90.29 10.31,84.21 Z"
   class="st14"
   id="path110"
   inkscape:connector-curvature="0"
   style="fill:#42e8ca;stroke:none;stroke-width:0.75;stroke-linecap:butt" />
				</g>
				<g
   id="shape12536-44"
   transform="translate(36.0773,-28.5066)">
					<title
   id="title113">Sheet.12536</title>
					<path
   d="M 20.62,90.29 10.31,96.38 0,90.29 10.31,84.53 Z"
   class="st15"
   id="path115"
   inkscape:connector-curvature="0"
   style="fill:#b4ec36;stroke:none;stroke-width:0.75;stroke-linecap:butt" />
				</g>
			</g>
		</g>
	</g>
</svg>

<svg xmlns="http://www.w3.org/2000/svg" xml:space="preserve" width="56.697" height="56.692" style="font-size:12px;overflow:visible;color-interpolation-filters:sRGB;fill-rule:evenodd;stroke-linecap:square;stroke-miterlimit:3" viewBox="0 0 56.697 56.692"><g transform="translate(-5.67 -5.673)"><title>Page-1</title><g transform="translate(5.67 -34.016)"><title>Blockchain Consortium.12513</title><title>Sheet.12514</title><g transform="translate(28.024 -32.35)"><title>Sheet.12515</title><path d="M10.31 78.12v12.17L0 96.38V84.21Z" style="fill:#773adc;stroke:none;stroke-width:.75;stroke-linecap:butt"/></g><g transform="translate(31.568 -37.981)"><title>Sheet.12516</title><path d="M2.25 90.2c1.42-.85 2.26-.29 2.26 1.4a5.72 5.689 0 0 1-2.26 3.94c-1.13.84-2.25.28-2.25-1.41a5.72 5.689 0 0 1 2.25-3.93" style="fill:#552f99;stroke:none;stroke-width:.75;stroke-linecap:butt"/></g><g transform="translate(17.394 -44.522)"><title>Sheet.12517</title><path d="m20.94 90.29-10.31 6.09L0 90.29l10.63-6.08Z" style="fill:#b796f9;stroke:none;stroke-width:.75;stroke-linecap:butt"/></g><g transform="translate(17.394 -32.35)"><title>Sheet.12518</title><path d="M10.63 84.21v12.17L0 90.29V78.12Z" style="fill:#a67af4;stroke:none;stroke-width:.75;stroke-linecap:butt"/></g><g transform="translate(19.7 -38.116)"><title>Sheet.12519</title><path d="M2.58 90.29c-1.29-.64-2.58 0-2.58 1.28a4.642 4.616-180 0 0 2.58 4.17c1.29.64 2.57 0 2.57-1.28a5.325 5.295-180 0 0-2.57-4.17" style="fill:#773adc;stroke:none;stroke-width:.75;stroke-linecap:butt"/></g><g transform="translate(46.385 -16.335)"><title>Sheet.12520</title><path d="M10.31 78.12v12.17L0 96.38V84.21Z" style="fill:#5e9624;stroke:none;stroke-width:.75;stroke-linecap:butt"/></g><g transform="translate(36.077 -16.335)"><title>Sheet.12521</title><path d="M10.31 84.21v12.17L0 90.29V78.12Z" style="fill:#76bc2d;stroke:none;stroke-width:.75;stroke-linecap:butt"/></g><g transform="translate(38.976 -21.46)"><title>Sheet.12522</title><path d="M2.58 90.29c-1.29-.64-2.58 0-2.58 1.28a4.642 4.616-180 0 0 2.58 4.17c1.29.64 2.57 0 2.57-1.28a5.325 5.295-180 0 0-2.57-4.17" style="fill:#5e9624;stroke:none;stroke-width:.75;stroke-linecap:butt"/></g><g transform="translate(33.178 -30.749)"><title>Sheet.12523</title><g transform="translate(0 -5.39)"><title>Sheet.12524</title><path d="M8.49 94.8a16.592 16.499-180 0 0-6.24-4.56A1.665 1.656-180 0 0 0 91.2a1.437 1.429-180 0 0 .97 1.92 13.71 13.632 0 0 1 4.7 3.26z" style="fill:#32bedd;stroke:none;stroke-width:.75;stroke-linecap:butt"/></g><g transform="translate(8.485)"><title>Sheet.12525</title><path d="M0 95.83c.06.19.16.36.21.55l.39-.19Z" style="fill:#32bedd;stroke:none;stroke-width:.75;stroke-linecap:butt"/></g></g><g transform="translate(10.308 -16.015)"><title>Sheet.12526</title><path d="M10.63 78.44v11.85L0 96.38V84.53Z" style="fill:#258277;stroke:none;stroke-width:.75;stroke-linecap:butt"/></g><g transform="translate(0 -16.015)"><title>Sheet.12527</title><path d="M10.31 84.53v11.85L0 90.29V78.44Z" style="fill:#37c2b1;stroke:none;stroke-width:.75;stroke-linecap:butt"/></g><g transform="translate(14.63 -35.62)"><title>Sheet.12528</title><path d="M8.56 90.68a2.158 2.146-180 0 0-2.58-.96A21.26 21.14-180 0 0 0 94.44l3.41 1.94a14.966 14.881 0 0 1 4.19-3.14 2.158 2.146-180 0 0 .96-2.56" style="fill:#32bedd;stroke:none;stroke-width:.75;stroke-linecap:butt"/></g><g transform="translate(28.99)"><title>Sheet.12529</title><path d="M10.31 78.12v12.17L0 96.38V84.21Z" style="fill:#d15900;stroke:none;stroke-width:.75;stroke-linecap:butt"/></g><g transform="translate(18.683)"><title>Sheet.12530</title><path d="M10.31 84.21v12.17L0 90.29V78.12Z" style="fill:#f78d1e;stroke:none;stroke-width:.75;stroke-linecap:butt"/></g><g transform="translate(34.985 -18.968)"><title>Sheet.12531</title><path d="M6.89 90.36a1.678 1.669-180 0 0-2.58.32A16.944 16.848 0 0 1 0 94.54l3.11 1.84a19.237 19.128-180 0 0 4.1-3.45 1.678 1.669-180 0 0-.32-2.57" style="fill:#32bedd;stroke:none;stroke-width:.75;stroke-linecap:butt"/></g><g transform="translate(13.61 -21.105)"><title>Sheet.12532</title><path d="M2.54 89.74c1.46-.8 2.53-.13 2.53 1.46a5.827 5.794 0 0 1-2.53 4.38c-1.47.8-2.54.13-2.54-1.46a5.476 5.445 0 0 1 2.54-4.38" style="fill:#207067;stroke:none;stroke-width:.75;stroke-linecap:butt"/></g><g transform="translate(14.705 -18.785)"><title>Sheet.12533</title><path d="M8.56 94.2a13.735 13.658 0 0 1-5.23-4.02 1.704 1.694-180 0 0-2.57-.32 1.704 1.694-180 0 0-.33 2.56 17.794 17.693-180 0 0 4.45 3.96Z" style="fill:#32bedd;stroke:none;stroke-width:.75;stroke-linecap:butt"/></g><g transform="translate(18.683 -12.171)"><title>Sheet.12534</title><path d="m20.62 90.29-10.31 6.09L0 90.29l10.31-6.08Z" style="fill:#ffb34d;stroke:none;stroke-width:.75;stroke-linecap:butt"/></g><g transform="translate(0 -27.866)"><title>Sheet.12535</title><path d="m20.94 90.29-10.63 6.09L0 90.29l10.31-6.08Z" style="fill:#42e8ca;stroke:none;stroke-width:.75;stroke-linecap:butt"/></g><g transform="translate(36.077 -28.507)"><title>Sheet.12536</title><path d="m20.62 90.29-10.31 6.09L0 90.29l10.31-5.76Z" style="fill:#b4ec36;stroke:none;stroke-width:.75;stroke-linecap:butt"/></g></g></g></svg>
